pieces/cburnett_purple/rw.svg

<svg xmlns="http://www.w3.org/2000/svg" width="45" height="45"><g fill="#EFEFEF" fill-rule="evenodd" stroke="#29113C" stroke-width="1.5" stroke-linecap="round" stroke-linejoin="round"><path d="M9 39h27v-3H9v3zm3-3v-4h21v4H12zm-1-22V9h4v2h5V9h5v2h5V9h4v5" stroke-linecap="butt"/><path d="M34 14l-3 3H14l-3-3"/><path d="M31 17v12.5H14V17" stroke-linecap="butt" stroke-linejoin="miter"/><path d="M31 29.5l1.5 2.5h-20l1.5-2.5"/><path d="M11 14h23" fill="none" stroke-linejoin="miter"/></g></svg>

<svg width="45" height="45" viewBox="0 0 45 45" fill="none" xmlns="http://www.w3.org/2000/svg">
<path fill-rule="evenodd" clip-rule="evenodd" d="M9 39H36V36H9V39ZM12 36V32H33V36H12ZM11 14V9H15V11H20V9H25V11H30V9H34V14" fill="#F0E9E9"/>
<path d="M11 14V9H15V11H20V9H25V11H30V9H34V14M9 39H36V36H9V39ZM12 36V32H33V36H12Z" stroke="#29113C" stroke-width="1.5" stroke-linejoin="round"/>
<path fill-rule="evenodd" clip-rule="evenodd" d="M34 14L31 17H14L11 14" fill="#F0E9E9"/>
<path d="M34 14L31 17H14L11 14" stroke="#29113C" stroke-width="1.5" stroke-linecap="round" stroke-linejoin="round"/>
<path fill-rule="evenodd" clip-rule="evenodd" d="M31 17V29.5H14V17" fill="#F0E9E9"/>
<path d="M31 17V29.5H14V17" stroke="#29113C" stroke-width="1.5"/>
<path fill-rule="evenodd" clip-rule="evenodd" d="M31 29.5L32.5 32H12.5L14 29.5" fill="#F0E9E9"/>
<path d="M31 29.5L32.5 32H12.5L14 29.5" stroke="#29113C" stroke-width="1.5" stroke-linecap="round" stroke-linejoin="round"/>
<path d="M11 14H34" stroke="#29113C" stroke-width="1.5" stroke-linecap="round"/>
</svg>
